icon/gr/microfocus.svg

<svg xmlns="http://www.w3.org/2000/svg" width="24" height="24"><path fill="#0078EF" fill-rule="evenodd" d="M1 5h4v14h14v4H1V5Zm4-4h18v18h-4V5H5V1Z"/></svg>

<svg xmlns="http://www.w3.org/2000/svg" viewBox="0 0 24 24" height="1em" width="1em">
  <path fill="#0078EF" fill-rule="evenodd" d="M1,5 L5,5 L5,19 L19,19 L19,23 L1,23 L1,5 Z M5,1 L23,1 L23,19 L19,19 L19,5 L5,5 L5,1 Z"/>
</svg>
